X: 14
T:Irish Rover, The
M:4/4
L:1/8
Q:120
R:March
K:A
EC|"A"A,2CD E2AB|c2BG "D"A2GF|"A"E2FEC2DC|"E"B,4-B,2EC|
"A"A,2CD E2AB|c2BG "D"A2GF|"A"E2FD "E"C2DB,|"A"A,4-A,2 "E"EE|
"A"A2ABc2cA|"E"B2BGE3E|"A"A2ABc2A2|"E"B>c BGE2EC|
"A"A,2CD E2AB|c2AF"D"D2CB,|"A"A,2CEA2c2|"E"B4 "A"A2:|
